icons/watchman.svg

<!--
  - The MIT License (MIT)
  -
  - Copyright (c) 2015-2024 Elior "Mallowigi" Boukhobza
  -
  - Permission is hereby granted, free of charge, to any person obtaining a copy
  - of this software and associated documentation files (the "Software"), to deal
  - in the Software without restriction, including without limitation the rights
  - to use, copy, modify, merge, publish, distribute, sublicense, and/or sell
  - copies of the Software, and to permit persons to whom the Software is
  - furnished to do so, subject to the following conditions:
  -
  - The above copyright notice and this permission notice shall be included in all
  - copies or substantial portions of the Software.
  -
  - THE SOFTWARE IS PROVIDED "AS IS", WITHOUT WARRANTY OF ANY KIND, EXPRESS OR
  - IMPLIED, INCLUDING BUT NOT LIMITED TO THE WARRANTIES OF MERCHANTABILITY,
  - FITNESS FOR A PARTICULAR PURPOSE AND NONINFRINGEMENT. IN NO EVENT SHALL THE
  - AUTHORS OR COPYRIGHT HOLDERS BE LIABLE FOR ANY CLAIM, DAMAGES OR OTHER
  - LIABILITY, WHETHER IN AN ACTION OF CONTRACT, TORT OR OTHERWISE, ARISING FROM,
  - OUT OF OR IN CONNECTION WITH THE SOFTWARE OR THE USE OR OTHER DEALINGS IN THE
  - SOFTWARE.
  -
  -->

<svg xmlns="http://www.w3.org/2000/svg" version="1.1" width="16px" height="16px" viewBox="0 0 512 512">
  <path fill="#7986CB" data-iconColor="Watchman"
        d="M492.7836914,351.9322815c-30.5963745,75.3821106-96.3289795,136.815918-187.1529236,154.8362732c-127.5383606,25.3048706-241.8036194-47.440918-286.1076355-153.4324646c17.2201157-16.1463623,48.5294952-49.3656921,81.2910156-80.9797974c48.2670975,45.8981934,102.8079147,90.7646484,155.4940796,90.7646484c52.0780029,0,107.646759-43.6541443,156.4037781-91.1311951C441.0029602,298.9930725,469.9056091,330.0839844,492.7836914,351.9322815z M427.4355164,258.4158325c26.6564636,26.9248047,51.6853027,54.1845398,72.4694214,73.7309265c15.0148621-47.6095581,16.4629211-99.5143127,2.0211792-148.9098969C480.8892822,203.2239227,454.7424622,230.8339081,427.4355164,258.4158325z M213.3267365,227.0128632v59.4447784l37.4886017,20.072998c3.6538239,1.9153137,9.0096741,1.9375305,12.6828308,0.0594788l35.4583435-19.299469v-59.2781677l-37.4576111-18.6626587c-3.6731567-1.8780365-9.0289917-1.855835-12.6828766,0.0594788L213.3267365,227.0128632z M100.2968445,244.9407349c48.1544189-46.2016449,103.5008545-93.2293396,156.0113831-93.2293396c51.9621582,0,107.3998108,45.1194611,156.0785217,92.7687836c28.2851868-28.5699005,58.9428711-60.2778473,82.4017029-82.1681976c-10.3609009-26.4512482-25.5335083-51.8694839-45.90448-75.1503448C322.4297485-57.3557892,87.8277283-14.4519167,18.3238125,161.64711C35.1026535,177.7445984,66.6719894,212.5248413,100.2968445,244.9407349z M255.3085785,171.7040558c46.4093781,0,92.8061371,39.2685394,143.1072235,86.712265c-45.5605164,44.9198914-92.3865967,84.7119446-142.1075745,84.7119446c-48.2804108,0-97.9382019-42.8482056-141.9946594-84.7496643C158.2086487,216.1745148,207.0373383,171.7040558,255.3085785,171.7040558z M265.2879333,189.3542786c-6.7367859-2.0788116-17.1428833-1.6577301-20.1192017,0c0,0-35.4608002,17.9405212-43.9749451,22.1240082c-8.5140991,4.1835022-7.2388916,15.1139221-7.2388916,15.1139221l0.1374054,62.4567719c0,6.2979431,1.6437531,9.5580139,6.568573,13.004303l45.2717438,22.7975464c6.0441589,2.6188049,17.6428528,2.3335266,21.5374756,0.4530334l42.9781799-21.7786865c5.4762268-4.1444092,8.2388306-7.8728333,8.3743286-11.1985474V226.773941c0.0666809-5.898819-3.0165405-11.3415985-10.832489-15.5687866L265.2879333,189.3542786z M85.8973465,258.9270935c-32.321701-31.6013184-59.3924904-61.6280518-74.7842331-76.5858917C-4.6967835,234.5112152-2.9553466,286.375824,12.0129337,332.9920959C27.5481682,318.3414307,54.2008057,289.9172058,85.8973465,258.9270935z"/>
</svg>

<svg xmlns="http://www.w3.org/2000/svg" viewBox="0 0 512 512"><path fill="#7986cb" d="M492.784 351.932c-30.597 75.382-96.33 136.816-187.153 154.837-127.539 25.304-241.804-47.441-286.108-153.433 17.22-16.146 48.53-49.366 81.291-80.98 48.267 45.898 102.808 90.765 155.494 90.765 52.078 0 107.647-43.654 156.404-91.131 28.291 27.003 57.194 58.094 80.072 79.942m-65.348-93.516c26.656 26.925 51.685 54.184 72.469 73.73 15.015-47.609 16.463-99.514 2.021-148.91-21.037 19.988-47.184 47.598-74.49 75.18m-214.11-31.403v59.445l37.49 20.073c3.653 1.915 9.009 1.937 12.682.06l35.459-19.3v-59.279l-37.458-18.662c-3.673-1.878-9.03-1.856-12.683.06zm-113.03 17.928c48.155-46.202 103.502-93.23 156.012-93.23 51.962 0 107.4 45.12 156.079 92.77 28.285-28.57 58.943-60.279 82.401-82.169-10.36-26.451-25.533-51.87-45.904-75.15C322.43-57.356 87.828-14.452 18.324 161.647c16.779 16.098 48.348 50.878 81.973 83.294m155.013-73.237c46.409 0 92.806 39.269 143.107 86.712-45.56 44.92-92.387 84.712-142.108 84.712-48.28 0-97.938-42.848-141.994-84.75 43.895-42.203 92.723-86.674 140.995-86.674m9.979 17.65c-6.737-2.079-17.143-1.657-20.12 0 0 0-35.46 17.94-43.974 22.124s-7.24 15.114-7.24 15.114l.138 62.457c0 6.298 1.644 9.558 6.569 13.004l45.272 22.798c6.044 2.619 17.642 2.333 21.537.453l42.978-21.779c5.476-4.144 8.24-7.873 8.375-11.198v-65.553c.066-5.899-3.017-11.342-10.833-15.569zm-179.39 69.573c-32.322-31.601-59.393-61.628-74.785-76.586-15.81 52.17-14.068 104.035.9 150.651 15.535-14.65 42.188-43.075 73.884-74.065" data-iconColor="Watchman"/></svg>
